X: 1
T: Keppel's Delight
C: Trad
R: Thompson
L: 1/8
M: 6/8
K: G
Z: ABC transcription by Verge Roller
r: 32
|: "G" B2 c dcB | "C" efg efg | "C" edc "G" BAG | "D" FAG FED |
"G" B2c dcB | "C" efg "G" efg | "C" edc "D" BcA | "G" G3 G,3 :|
|: "D" ADD "G" BDD | "D" cDD "G" BDD | "D" ADD "G" BDD | "D" A2 D DDD |
"D" ADD "G" BDD | "D" cDD "G" BDD | "C" AcB "D" AGF | "G" G3 G,3 :|
